packages/core/assets/Icons/upload.svg

<svg viewBox="0 0 20 20" fill="none" xmlns="http://www.w3.org/2000/svg">
<path d="M5.00004 16.6667C4.54171 16.6667 4.14935 16.5035 3.82296 16.1771C3.49657 15.8507 3.33337 15.4583 3.33337 15V13.3333C3.33337 13.0972 3.41324 12.8993 3.57296 12.7396C3.73268 12.5799 3.9306 12.5 4.16671 12.5C4.40282 12.5 4.60074 12.5799 4.76046 12.7396C4.92018 12.8993 5.00004 13.0972 5.00004 13.3333V15H15V13.3333C15 13.0972 15.0799 12.8993 15.2396 12.7396C15.3993 12.5799 15.5973 12.5 15.8334 12.5C16.0695 12.5 16.2674 12.5799 16.4271 12.7396C16.5868 12.8993 16.6667 13.0972 16.6667 13.3333V15C16.6667 15.4583 16.5035 15.8507 16.1771 16.1771C15.8507 16.5035 15.4584 16.6667 15 16.6667H5.00004ZM9.16671 6.54167L7.60421 8.10417C7.43754 8.27083 7.23962 8.35069 7.01046 8.34375C6.78129 8.33681 6.58337 8.25 6.41671 8.08333C6.26393 7.91667 6.18407 7.72222 6.17712 7.5C6.17018 7.27778 6.25004 7.08333 6.41671 6.91667L9.41671 3.91667C9.50004 3.83333 9.59032 3.77431 9.68754 3.73958C9.78476 3.70486 9.88893 3.6875 10 3.6875C10.1112 3.6875 10.2153 3.70486 10.3125 3.73958C10.4098 3.77431 10.5 3.83333 10.5834 3.91667L13.5834 6.91667C13.75 7.08333 13.8299 7.27778 13.823 7.5C13.816 7.72222 13.7362 7.91667 13.5834 8.08333C13.4167 8.25 13.2188 8.33681 12.9896 8.34375C12.7605 8.35069 12.5625 8.27083 12.3959 8.10417L10.8334 6.54167V12.5C10.8334 12.7361 10.7535 12.934 10.5938 13.0937C10.4341 13.2535 10.2362 13.3333 10 13.3333C9.76393 13.3333 9.56601 13.2535 9.40629 13.0937C9.24657 12.934 9.16671 12.7361 9.16671 12.5V6.54167Z" fill="currentColor"/>
</svg>

<svg xmlns="http://www.w3.org/2000/svg" width="20" height="20" fill="none" viewBox="0 0 20 20">
  <path fill="#201F1F" d="M5 16.667c-.458 0-.85-.164-1.177-.49A1.605 1.605 0 0 1 3.333 15v-1.667c0-.236.08-.434.24-.593.16-.16.358-.24.594-.24s.434.08.593.24c.16.16.24.357.24.593V15h10v-1.667c0-.236.08-.434.24-.593.16-.16.357-.24.593-.24.237 0 .434.08.594.24.16.16.24.357.24.593V15c0 .458-.164.85-.49 1.177-.326.326-.719.49-1.177.49H5ZM9.167 6.542 7.604 8.104a.776.776 0 0 1-.594.24.85.85 0 0 1-.833-.844.763.763 0 0 1 .24-.583l3-3a.731.731 0 0 1 .27-.177.922.922 0 0 1 .313-.053c.111 0 .215.018.313.053a.731.731 0 0 1 .27.177l3 3a.764.764 0 0 1 .24.583.85.85 0 0 1-.833.844.776.776 0 0 1-.594-.24l-1.563-1.562V12.5c0 .236-.08.434-.24.594a.806.806 0 0 1-.593.24.806.806 0 0 1-.594-.24.806.806 0 0 1-.24-.594V6.542Z"/>
</svg>
